X:1
T:Title
%%score { ( 1 4 5 ) | ( 2 3 ) }
L:1/8
Q:1/4=106
M:4/4
K:F
V:1 treble nm="Grand Piano"
V:4 treble 
V:5 treble 
V:2 bass 
V:3 bass 
V:1
 A2 F2 B3 A | [CFA]2 [B,EG][_E^F] [C=EA]2 [B,EG]2 | [A,DF]2 [A,DF]2 [CEG]3 [CEG] | %3
w: J.~M.~Blose * * *|||
 [CFA]2 [CFc]2 [CEG]4 | [CFA]2 [A,F]2 [DFB]3 [CFA] | [CFA]2 [B,EG][_E^F] [C=EA]2 [B,EG]2 | %6
w: |||
 [A,DF]2 [A,D^F]2 [DG]2 [Ac]B | [CFA]3 [B,EG] [A,F]4 | [EG]6 z2 | [GB]4 z4 | A2 d2 [Ec]2 =B2 | %11
w: |||||
 [Ec]4 [EB]4 | A2 F2 B3 A | [CFA]2 [B,EG][_E^F] [C=EA]2 [B,EG]2 | [A,DF]2 [A,D^F]2 [DG]2 [Ac]B | %15
w: ||||
[M:8/4] [CFA]3 [B,EG] [A,F]4 z8 |] %16
w: |
V:2
 [F,CF]2 [F,A,]2 [F,DF]3 [F,CF] | C,2 z A, C,2 ^C,2 | D,2 D,2 C,3 C, | F,2 A,,2 C,4 | %4
 F,2 F,2 F,3 F, | C,2 z A, C,2 ^C,2 | D,2 C,2 B,,2 z G | C,3 C, F,4 | C,2 C,2 z[K:treble] _E=EF | %9
 C,2 z F [C,C]2 [C,C]2 | [F,F]2- [F,A,F]2 z2 D2 | G,2 z2 G,2 z2 | [F,CF]2 [F,A,]2 [F,DF]3 [F,CF] | %13
 C,2 z A, C,2 ^C,2 | D,2 C,2 B,,2 z G |[M:8/4] C,3 C, F,4 z8 |] %16
V:3
 x8 | z2 C,2 z4 | x8 | x8 | x8 | z2 C,2 z4 | z4 z2 G,,2 | x8 | z4 C,2[K:treble] z2 | z2 C,2 z4 | %10
 C2 z2 G,4 | C,4 C,4 | x8 | z2 C,2 z4 | z4 z2 G,,2 |[M:8/4] x16 |] %16
V:4
 x8 | x8 | x8 | x8 | x8 | x8 | z4 z2 D2 | x8 | C2 C2 z ^FGA | C2 z A [EG]2 [EG]2 | x8 | %11
 z2 ^F,2 z2 C2 | x8 | x8 | z4 z2 D2 |[M:8/4] x16 |] %16
V:5
 x8 | x8 | x8 | x8 | x8 | x8 | x8 | x8 | z4 C2 z2 | z2 C2 z4 | x8 | x8 | x8 | x8 | x8 | %15
[M:8/4] x16 |] %16

